X: 7
T:Knuckeen Free (#312), The
M:4/4
L:1/8
S:Capt. F. O'Neill
R:Hornpipe
K:C
cd|(3efg ed c2 Bc|AcBA G2 (3EFG|ABAG "tr"EDEG|AGAB cBcd|
(3efg ed c2 Bc|AcBA G2 (3EFG|ABAG "tr"EDEG|A2 AA A2:|
|:E2|ABcd e2 ef|gage dBG>d|(3efg ed c2 Bc|AGEF G2 cd|
1(3efg ed c2 Bc|AcBA G2 (3EFG|ABAG "tr"EDEG|A2 AA A2:|
2(3efg ed cedB|AcBA G2 (3EFG|ABAG "tr"EDEG|A2 AA A2||
%
% In the days of our fathers, "An Chnoicin Fraoich", or "Little Heathy
% Hill", both as song and air enjoyed no little popularity in the
% province of Munster, particularly in the counties of Cork and Kerry. 
% As an air several settings of the melody have been printed, but never
% as a hornpipe until now, and under its colloquial name among the
% peasantry.
%   It will be remembered that many notable dance tunes, especially
% hornpipes and long dances, have been derived from song airs, such
% as "The Blackbird", "The Job of Journeywork", "The Garden of
% Daisies", "Rodney's Glory", and many others.

